fubotv.svg

<svg viewBox="0 0 24 24" xmlns="http://www.w3.org/2000/svg"><path d="M20.9335 8.48217L20.4641 10.371L19.8728 10.3771L20.3239 8.48829L19.6472 8.50051L19.7874 7.98093L22.354 7.98703L22.5003 9.61304L23.366 7.98703L24 7.98703L22.6039 10.371L22.0675 10.3771L21.7322 8.05427L21.8001 8.47606L20.9335 8.48217Z" fill="#a6aaab"/><path d="M0.0365836 11.3616L0.329221 9.93118L1.14613 9.94952C1.39403 8.39279 2.42228 7.79578 4.17601 8.03007L3.90778 9.45437L3.24938 9.44211C2.92351 9.4546 2.74926 9.6332 2.7007 9.94948L3.55419 9.94385L3.28594 11.3559L2.41417 11.3682L1.5302 15.8794L0 15.885L0.871778 11.3554L0.0365836 11.3616ZM4.05535 9.88212L5.66479 9.88212L5.04905 13.0608C4.92712 13.7332 4.7991 14.4789 5.59773 14.6195C5.81936 14.6515 6.0472 14.6198 6.26282 14.5186C6.91286 14.2132 7.07113 13.567 7.20256 12.9184L7.81681 9.88827L9.35918 9.88264L8.17649 15.8427L6.76213 15.861L6.8231 15.5676C5.88242 16.1895 4.73852 16.1062 4.05598 15.6543C3.39309 15.1857 3.24198 14.3649 3.40819 13.3258L4.05535 9.88212ZM8.69966 15.8612L10.2116 15.8556L10.303 15.3727C11.2317 16.3793 13.3553 16.0472 14.095 15.385C13.6874 14.9662 13.5147 14.4691 13.4487 13.9362C12.9224 14.625 11.8901 14.7085 11.3577 14.2969C10.8578 13.9405 10.7282 13.2304 10.8583 12.615C10.9757 12.0592 11.3397 11.5671 11.8715 11.3531C12.5007 11.0999 13.2552 11.2618 13.6255 11.754C14.249 12.7708 13.7477 13.6169 14.1838 14.5277C14.4433 15.0698 14.9553 15.5301 15.4999 15.7653C16.1553 16.0485 16.956 16.1029 17.6971 15.8869C18.5675 15.6332 19.2829 15.0051 19.6776 14.1905C20.147 13.2218 20.18 12.0258 19.6874 11.1267C18.8718 9.63851 16.6541 9.27501 15.2838 10.3297C15.6287 10.7581 15.7842 11.2481 15.8934 11.7662C16.4624 11.0123 17.5618 11.1019 18.0759 11.5584C18.517 11.9479 18.64 12.8585 18.3091 13.5753C18.0525 14.131 17.5846 14.4317 16.9931 14.5235C15.9516 14.685 15.3952 13.8445 15.3448 12.9704C15.333 12.098 15.2629 11.4698 14.9417 10.9619C14.7208 10.6125 14.3633 10.2941 13.9974 10.1056C13.205 9.69727 12.0908 9.66754 11.3212 10.1463L11.7296 8.0435L10.2116 8.03787L8.69966 15.8612Z" fill="#000000"/></svg>

<svg viewBox="0 0 24 24" xmlns="http://www.w3.org/2000/svg"><path d="m20.933 8.482-.469 1.889-.591.006.45-1.889-.676.013.14-.52 2.567.006.146 1.626.866-1.626H24l-1.396 2.384-.537.006-.335-2.323.068.422-.867.006Z" fill="#a6aaab"/><path d="m.037 11.362.292-1.43.817.018c.248-1.557 1.276-2.154 3.03-1.92l-.268 1.424-.659-.012c-.325.013-.5.191-.548.507l.853-.005-.268 1.412-.872.012-.884 4.511-1.53.006.872-4.53-.835.007Zm4.018-1.48h1.61l-.616 3.179c-.122.672-.25 1.418.549 1.559.221.032.45 0 .665-.101.65-.306.808-.952.94-1.6l.614-3.03 1.542-.006-1.183 5.96-1.414.018.061-.293c-.94.621-2.084.538-2.767.086-.663-.468-.814-1.29-.648-2.328l.647-3.444Zm4.645 5.98 1.512-.006.091-.483c.929 1.006 3.052.674 3.792.012-.408-.419-.58-.916-.646-1.449-.527.689-1.559.773-2.091.36-.5-.355-.63-1.066-.5-1.681.118-.556.482-1.048 1.013-1.262.63-.253 1.384-.091 1.755.401.623 1.017.122 1.863.558 2.774.26.542.771 1.002 1.316 1.237a3.301 3.301 0 0 0 2.197.122 3.22 3.22 0 0 0 1.98-1.697c.47-.968.503-2.164.01-3.063-.815-1.488-3.033-1.852-4.403-.797.345.428.5.918.61 1.436.568-.754 1.668-.664 2.182-.208.441.39.564 1.3.233 2.017-.257.556-.724.857-1.316.949-1.041.161-1.598-.68-1.648-1.554-.012-.872-.082-1.5-.403-2.008a2.541 2.541 0 0 0-.945-.856c-.792-.409-1.906-.438-2.676.04l.409-2.103-1.518-.005L8.7 15.86Z"/></svg>
